X:1
T:Unseld, 98.98 D
T:Benjamin Carl Unseld, 1884
T:Unseld, 98.98 D
T:Public Domain
C:Benjamin Carl Unseld, 1884
Z:Public Domain
%%score ( 1 2 ) ( 3 4 )
L:1/8
M:4/4
K:C
V:1 treble 
V:2 treble 
V:3 bass 
V:4 bass 
V:1
 [EG]2 | [Ec]2 [FB]>[FA] [EG]2 [^D^F][EG] | [^DA]4 [EG]2 [EG]2 | [EG]2 [DF]>[CE] [B,D]2 [CE][DF] | %4
 [CE]6 [EG]2 | [Ec]2 [FB]>[FA] [EG]2 [^D^F][EG] | [^DA]4 [EG]2 [Ec]2 | %7
 [EB]2 [EA]>[EG] [D^F]2 [DG][DA] | [DG]6 [DG]2 | [FB]2 [FB]>[Fc] [Fd]2 [Ec][FB] | %10
 ([Ec]2 [CE]2) [EG]2 [EG]2 | [EG]2 [DF]>[CE] [B,D]2 [CE][DF] | [CE]6 [EG]2 | %13
 [Ge]2 [Ge]>[Ge] [^Ge]2 [EB][EB] | (d2 c2) [FA]2 [^DA]2 | [EG]2 [EG]>[Ec] [FB]2 [FA]>[FB] | %16
 [Ec]6 |] %17
V:2
 x2 | x8 | x8 | x8 | x8 | x8 | x8 | x8 | x8 | x8 | x8 | x8 | x8 | x8 | E4 x4 | x8 | x6 |] %17
V:3
 [C,G,]2 | [C,G,]2 [C,A,]>[C,B,] [C,C]2 [C,A,][C,G,] | [C,^F,]4 [C,G,]2 [C,G,]2 | %3
 [G,,G,]2 [G,,G,]>[G,,G,] [G,,G,]2 [G,,G,][G,,G,] | [C,G,]6 [C,G,]2 | %5
 [C,G,]2 [C,A,]>[C,B,] [C,C]2 [C,A,][C,G,] | [C,^F,]4 [C,G,]2 [A,,A,]2 | %7
 [B,,D]2 [C,C]>[C,B,] [D,A,]2 [D,B,][D,C] | [G,B,]6 [G,B,]2 | %9
 [G,D]2 [G,D]>[G,C] [G,B,]2 [G,C][G,D] | (C2 G,2) [C,C]2 [C,G,]2 | %11
 [G,,G,]2 [G,,G,]>[G,,G,] [G,,G,]2 [G,,G,][G,,G,] | [C,G,]6 [C,C]2 | %13
 [C,C]2 [C,C]>[C,C] [E,B,]2 [E,^G,][E,G,] | A,4 [F,C]2 [^F,C]2 | %15
 [G,C]2 [G,C]>[G,C] [G,,D]2 [G,,D]>[G,,D] | [C,C]6 |] %17
V:4
 x2 | x8 | x8 | x8 | x8 | x8 | x8 | x8 | x8 | x8 | C,4 x4 | x8 | x8 | x8 | A,4 x4 | x8 | x6 |] %17

